X:1
T:Zwölf deutsche geistliche Gesänge
T:Adventlied
T:Satz: Max Reger
T:Text: Georg Weissel
T:Adventlied
T:Nr. 1 aus Zwölf deutsche geistliche Gesänge, WoO VI/13
T:CPDL - Creative Commons Attribution Non Commercial 3.0
T:CPDL - Creative Commons Attribution Non Commercial 3.0
T:CPDL - Creative Commons Attribution Non Commercial 3.0
T:CPDL - Creative Commons Attribution Non Commercial 3.0
C:Max Reger
Z:Georg Weissel
Z:CPDL - Creative Commons Attribution Non Commercial 3.0
%%score [ ( 1 2 ) 3 4 5 ]
L:1/8
Q:1/4=120
M:6/4
K:A
V:1 treble nm="Sopran\nAlt"
V:2 treble 
V:3 treble-8 nm="Tenor\n1"
V:4 treble-8 nm="Tenor\n2"
V:5 bass nm="Bass"
V:1
"^Con moto"!f!!<(! c2 e4!<)! d2 | c4 B2 (A2 B2)!>(! c2 | !fermata!B4!>)! |!ff!!<(! e2 d4 d2!<)! | %4
 c4 c2 (B2 A2)!>(! B2 | !fermata!A4!>)! |!f!!<(! c2 B4 B2 | (c2 ^d2) e2!<)! (e2 f2)!>(! d2 | %8
 !fermata!e4!>)!!pp!!<(! B2 c4!<)! B2 | (c2 ^d2) e2 (e2!>(! f2) d2 | %10
 !fermata!e4!>)!!<(! e2 f4 e2!<)! | f4 e2 (f2!>(! e2) d2!>)! |!pp! !fermata!c4!f!!<(! =e2 f4 e2 | %13
 f4!<)! e2 (f2 e2) d2 | !fermata!c4 |!ff!!<(! e2 A4!<)! A2 | d4!>(! c2 !fermata!B4!>)!!ff!!<(! e2 | %17
 d4!<)! c2 (B2!>(! A2) B2 | %18
"^(*) \nin der Edition des Aibl Verlags heisst es:\n ... mein Schöpfer hier und dort." !fermata!A4!>)! |] %19
V:2
 A2 (A2 G2) F2 | (C2 FA) DE F4 F2 | G4 | AG (F2 D2) B2 | (B3 G) AG F4 G2 | A4 | A2 (^D2 F2) G2 | %7
w: 1.~Macht hoch _ die|Tür, _ _ die _ Tor' macht|weit;|1.~es * kommt _ der|Herr _ der _ Herr- lich-|keit,|1.~ein Kö- * nig|
w: 2.~Er ist _ ge-|recht, _ _ ein _ Hel- fer|wert;|2.~Sanft- * mü- * tig-|keit _ ist _ sein Ge-|fährt,|2.~sein' Kö- * nigs-|
 A4 G2 F4 F2 | G4 F2 (^E2 F2) B,2 | (=E2 F2) G2 A4 A2 | G4 A2 A4 E2 | (^A2 B2) E2 (=A2 =G2) F2 | %12
w: al- ler Kö- nig-|reich', ein Hei- * land|1.~al- * ler Welt zu-|gleich, der Heil und|Le- * ben mit _ sich|
w: kron' ist Hei- lig-|keit, sein Zep- * ter|2.~ist _ Barm- her- zig-|keit; all' uns- re|Not _ zum End' _ er|
 ^E4 A2 A4 =GB | (F2 ^G2) =A2 (A2 =G2) G2 | E4 | E2 (E2 D2) E2 | D4 A2 G4 AG | F4 E2 (D3 C) B,E | %18
w: 1.~bringt, der- hal- ben _|jauchzt, _ mit Freu- * den|singt:|1.~Ge- lo- * bet|sei mein Gott, mein *|Schöp- fer reich _ von _|
w: 2.~bringt, der- hal- ben _|jauchzt, _ mit Freu- * den|singt:|2.~Ge- lo- * bet|sei mein Gott, mein *|Hei- land groß _ von _|
 E4 |] %19
w: Rat.~(*)|
w: Tat.|
V:3
!mf!!<(! e2 (e3 c)!<)! f2 |!>(! (f3!>)! e)!<(! dc d4!<)!!>(! cf | !fermata!B4!>)! | %3
!p!!<(! A2 (A3 d)!<)! e2 | e4 e2 (d2 c2)!>(! B2 | !fermata!c4!>)! |!f!!<(! e2 ^d4!<)! e2 | %7
 (e2 f2) e^d (c3 f)!>(! f2 | !fermata!e4!>)!!f!!<(! f2 (c3 ^d)!<)! =e2 | %9
 (c2 f2)!>(! e^d (c3!>)!!p! f) f2 |!>(! !fermata!e4!>)!!mf!!<(! e2 d4 e2!<)! | %11
 (c2 d2) e2 (dc!>(! B3) A | !fermata!^G4!>)!!f!!<(! =ec (A2 f2) =g2 | (f3!<)! d) ea (af =g3) d | %14
 !fermata!A4 |!ff!!<(! e2 (f2 a2)!<)! ec | (d3 e)!>(! ef !fermata!B4!>)!!ff!!<(! A2 | %17
 (f2!<)! de) f2 f4!>(! ed | !fermata!c4!>)! |] %19
V:4
!f!!<(! A2 A4!<)! AB | (B2 A2) B2 (F3 G)!>(! A2 | !fermata!G4!>)! |!p!!<(! e2 A4!<)! B2 | %4
w: 3.~Macht hoch die _|Tür, _ die Tor' _ macht|weit!|3.~Eu’r Herz zum|
w: 4.~Komm, o mein _|Hei- * land Je- * su|Christ,|4.~mein's Her- zens|
 (e2 d2) c2 (F3 A)!>(! GE | !fermata!E4!>)! |!mp!!<(! AG (F3 B) B2 | A4 cB A4 B2!<)! | %8
w: Tem- * pel sei _ be- *|reit!|3~Die _ Zweig- * lein|der Gott- * se- lig-|
w: Tür _ dir of- * fen _|ist;|4.~ach _ zieh _ mit|dei- ner _ Gna- de|
 !fermata!B4!f!!<(! B2 (G2 A2)!<)! B2 | A4 G2 c4!>(! B2 | %10
w: keit steckt auf _ mit|3.~An- dacht, Lust und|
w: ein; dein Freund- * lich-|4.~keit auch uns er-|
 !fermata!B4!>)!!f!!<(! c2 (d3 =c) B2!<)! | (c2 B2) A2 (A2 E2)!>(! Fd | %12
w: Freud'; so kommt _ der|Kö- * nig auch _ zu _|
w: schein; dein heil'- * ger|Geist _ uns führ' _ und _|
 !fermata!^G4!>)!!f!"^più"!<(! c4 =c2 B2 | (^c2!<)! d2) c2 (=c2 B2) _B2 | !fermata!A4 | %15
w: 3.~euch, ja, Heil und|Le- * ben mit _ zu-|gleich:|
w: 4.~leit' den Weg zur|ew'- * gen Se- * lig-|keit.|
!ff!!<(! B2 A4!<)! A2 | (A2 G2)!>(! AF !fermata!G4!>)!!ff!!<(! e2 | (A2!<)! B2) c2 F4!>(! G2 | %18
w: 3.~Ge- lo- bet|sei _ mein * Gott, voll'|Rat, _ voll' Tat, voll'|
w: 4.~Dem Na- men|dein, _ o * Herr, sei|e- * wig Preis und|
 !fermata!A4!>)! |] %19
w: Gnad'.|
w: Ehr.|
V:5
!f!!<(! A,2 C,4!<)! D,2 | F,4 =G,2 D,4!>(! ^D,2 | !fermata!E,4!>)! | %3
!ff!!<(! C,2 (D,2 F,2)!<)! G,2 | (A,2 B,,2) C,2 (D,3 B,,)!>(! E,2 | !fermata!A,,4!>)! | %6
!pp!!<(! A,,2 B,,4!<)! E,2 | (A,,2 F,2) C,2 A,G,A,F,!>(! B,2 | %8
 !fermata!E,4!>)!!p!!<(! =D,2 (C,2 F,2) G,2!<)! | (A,2 F,2) C,2 A,,4!>(! B,,2 | %10
 !fermata!E,4!>)!!mf!!<(! A,2 (D,2 F,2) =G,2 | (F,2 B,,2) C,2 (D,2 E,2) B,,2!<)! | %12
!f! !fermata!C,4!f!!<(! A,,2 (D,2 ^D,2) E,2 | (^A,,2!<)! B,,2) C,2 (^D,2 E,2) =G,2 | !fermata!A,4 | %15
!ff!!<(! G,2 F,4!<)! C,2 | B,,4!ff!"^più"!<(! C,^D, !fermata!E,4 C,2 | %17
 (D,2!<)! G,,2) ^A,,2 B,,4!>(! [E,,E,]2 | !fermata![A,,E,]4!>)! |] %19

